X:15606
M:6/8
K:G
P:A
ded BGd g2f edB |1,3 cBc a2g fed cBc :|2,4 cAa z2g f2d efg ||
P:B
e2f gfe ded BGg |1,3 f2e d2c B2A Bcd :|2 A2B c2d e2d efg :|4 fed cBA G3 B2c ||

